X: 24476
T: Lucy And Winnie
R: reel
M: 4/4
K: Dmajor
|:"D" f3 f- fe-ed|"Bm" d8|"G" d3 d- dc-cB|"D" A8|
"G" d3 d- dc-cA|"D" B2 AF- F A3|"A" FE- E6|z8:|
|:"Bm" F4- F A2 B|"A" c4- c d2 e|"D" f2 f2 fedB-|"G" B8|
"F#m" f2 f2 fedb-|"Bm" b a2 f- f a3|"A" fe- e6|z8:|
"D" f3 f- fe-ed|"Bm" d8|"G" d3 d- dc-cB|"D" A8|"G" d3 d- dc-cA|
"D" B2 AF- F A3|"A" FE- E6|z4 z F2 E|"D" D8|z8||

